theme/dist/img/logo-benlemi.svg

<svg clip-rule="evenodd" fill-rule="evenodd" stroke-linejoin="round" stroke-miterlimit="1.41421" viewBox="0 0 2513 491" xmlns="http://www.w3.org/2000/svg" xmlns:xlink="http://www.w3.org/1999/xlink"><clipPath id="a"><path clip-rule="evenodd" d="m0 0h2512.54v490.146h-2512.54z"/></clipPath><path d="m0 0h2512.54v490.146h-2512.54z" fill="none"/><g clip-path="url(#a)"><g fill="#3c3c3b"><path d="m0 310.732v-152.533h89.618c14.777 0 28.102 1.735 39.975 5.195 11.869 3.464 21.932 8.423 30.187 14.876 8.254 6.456 14.621 14.248 19.102 23.375 4.481 9.131 6.722 19.443 6.722 30.932 0 25.501-8.295 44.903-24.881 58.203-16.59 13.304-40.369 19.952-71.341 19.952zm76.883-310.968c31.915 0 55.617 6.376 71.105 19.126 15.484 12.75 23.23 31.012 23.23 54.78 0 8.658-1.692 17.435-5.071 26.327-3.382 8.895-8.807 16.923-16.272 24.084-7.47 7.164-17.062 12.986-28.772 17.472-11.715 4.487-25.906 6.73-42.569 6.73h-78.534v-148.519zm-89.854-10.389v331.982h102.353c17.294 0 32.701-1.967 46.224-5.903 13.52-3.933 24.958-9.681 34.315-17.237 9.352-7.555 16.468-16.8 21.343-27.744 4.871-10.938 7.311-23.493 7.311-37.66 0-11.489-1.968-21.919-5.896-31.286-3.932-9.363-9.633-17.473-17.098-24.32-7.47-6.848-16.549-12.433-27.239-16.765-10.694-4.327-22.799-7.201-36.319-8.618 10.848-2.044 20.713-5.585 29.597-10.625 8.881-5.036 16.428-11.097 22.641-18.181 6.209-7.083 11.043-14.912 14.504-23.494 3.456-8.578 5.188-17.509 5.188-26.799 0-26.6-8.807-47.142-26.414-61.627-17.61-14.481-44.496-21.723-80.656-21.723zm333.472 320.884v-151.823h154.002v-10.862h-154.002v-147.101h182.774v-11.098h-195.745v331.982h195.745l.472-11.098zm524.972-320.884v301.523c0 1.262.037 2.597.118 4.014.077 1.417.195 2.834.353 4.25l-226.639-306.717c-.944-1.258-1.809-2.085-2.595-2.48-.788-.391-1.809-.59-3.065-.59h-5.896v331.982h11.32v-302.231c0-1.258-.041-2.634-.118-4.132-.081-1.494-.199-2.951-.354-4.368l227.583 307.898c1.415 1.889 3.143 2.833 5.188 2.833h5.425v-331.982zm155.417 320.648v-320.648h-12.975v331.982h177.355v-11.334z" fill-rule="nonzero" transform="translate(561.489 168.789)"/><path d="m0 309.786v-151.824h154.002v-10.861h-154.002v-147.102h182.774v-11.097h-195.745v331.982h195.745l.471-11.098z" fill-rule="nonzero" transform="translate(1825.33 169.262)"/><path d="m0-333.252h-12.291l-123.409 195.915-123.409-195.915h-12.784v333.252h11.309v-314.546l120.459 191.484h8.358l120.458-191.484h.493l-.493 136.353v178.193h11.309z" fill-rule="nonzero" transform="translate(2369.47 490.146)"/><path d="m2686.18 275.187h11.8v333.252h-11.8z" transform="translate(-185.444 -118.293)"/></g><path d="m0 .254-86.59 86.336v-172.926z" fill="#7bb82a" fill-rule="nonzero" transform="translate(293.588 93.3344)"/><path d="m0 44.625c62.556 47.682 125.112 95.364 187.667 143.045 0-110.238.001-220.477.001-330.715-62.556 62.557-125.112 125.113-187.668 187.67" fill="#7bb82a" fill-rule="nonzero" transform="translate(5.3311 150.043)"/><path d="m0-280.678v280.678h192.999v-133.573c-64.333-49.035-128.666-98.07-192.999-147.105" fill="#7bb82a" fill-rule="nonzero" transform="translate(0 488.889)"/><path d="m0-385.4c-32.164 32.071-64.327 64.143-96.49 96.215v289.185h193.001v-289.185c-32.17-32.072-64.341-64.144-96.511-96.215" fill="#a0cd54" fill-rule="nonzero" transform="translate(303.489 488.889)"/></g></svg>

<?xml version="1.0" encoding="UTF-8" standalone="no"?>
<!DOCTYPE svg PUBLIC "-//W3C//DTD SVG 1.1//EN" "http://www.w3.org/Graphics/SVG/1.1/DTD/svg11.dtd">
<svg width="100%" height="100%" viewBox="0 0 2513 491" version="1.1" xmlns="http://www.w3.org/2000/svg" xmlns:xlink="http://www.w3.org/1999/xlink" xml:space="preserve" xmlns:serif="http://www.serif.com/" style="fill-rule:evenodd;clip-rule:evenodd;stroke-linejoin:round;stroke-miterlimit:1.41421;">
    <rect id="Artboard1" x="0" y="0" width="2512.54" height="490.146" style="fill:none;"/>
    <clipPath id="_clip1">
        <rect id="Artboard11" serif:id="Artboard1" x="0" y="0" width="2512.54" height="490.146"/>
    </clipPath>
    <g clip-path="url(#_clip1)">
        <g transform="matrix(1,0,0,1,561.489,168.789)">
            <path d="M0,310.732L0,158.199L89.618,158.199C104.395,158.199 117.72,159.934 129.593,163.394C141.462,166.858 151.525,171.817 159.78,178.27C168.034,184.726 174.401,192.518 178.882,201.645C183.363,210.776 185.604,221.088 185.604,232.577C185.604,258.078 177.309,277.48 160.723,290.78C144.133,304.084 120.354,310.732 89.382,310.732L0,310.732ZM76.883,-0.236C108.798,-0.236 132.5,6.14 147.988,18.89C163.472,31.64 171.218,49.902 171.218,73.67C171.218,82.328 169.526,91.105 166.147,99.997C162.765,108.892 157.34,116.92 149.875,124.081C142.405,131.245 132.813,137.067 121.103,141.553C109.388,146.04 95.197,148.283 78.534,148.283L0,148.283L0,-0.236L76.883,-0.236ZM-12.971,-10.625L-12.971,321.357L89.382,321.357C106.676,321.357 122.083,319.39 135.606,315.454C149.126,311.521 160.564,305.773 169.921,298.217C179.273,290.662 186.389,281.417 191.264,270.473C196.135,259.535 198.575,246.98 198.575,232.813C198.575,221.324 196.607,210.894 192.679,201.527C188.747,192.164 183.046,184.054 175.581,177.207C168.111,170.359 159.032,164.774 148.342,160.442C137.648,156.115 125.543,153.241 112.023,151.824C122.871,149.78 132.736,146.239 141.62,141.199C150.501,136.163 158.048,130.102 164.261,123.018C170.47,115.935 175.304,108.106 178.765,99.524C182.221,90.946 183.953,82.015 183.953,72.725C183.953,46.125 175.146,25.583 157.539,11.098C139.929,-3.383 113.043,-10.625 76.883,-10.625L-12.971,-10.625ZM320.501,310.259L320.501,158.436L474.503,158.436L474.503,147.574L320.501,147.574L320.501,0.473L503.275,0.473L503.275,-10.625L307.53,-10.625L307.53,321.357L503.275,321.357L503.747,310.259L320.501,310.259ZM845.473,-10.625L845.473,290.898C845.473,292.16 845.51,293.495 845.591,294.912C845.668,296.329 845.786,297.746 845.944,299.162L619.305,-7.555C618.361,-8.813 617.496,-9.64 616.71,-10.035C615.922,-10.426 614.901,-10.625 613.645,-10.625L607.749,-10.625L607.749,321.357L619.069,321.357L619.069,19.126C619.069,17.868 619.028,16.492 618.951,14.994C618.87,13.5 618.752,12.043 618.597,10.626L846.18,318.524C847.595,320.413 849.323,321.357 851.368,321.357L856.793,321.357L856.793,-10.625L845.473,-10.625ZM1000.89,310.023L1000.89,-10.625L987.915,-10.625L987.915,321.357L1165.27,321.357L1165.27,310.023L1000.89,310.023Z" style="fill:rgb(60,60,59);fill-rule:nonzero;"/>
        </g>
        <g transform="matrix(1,0,0,1,1825.33,169.262)">
            <path d="M0,309.786L0,157.962L154.002,157.962L154.002,147.101L0,147.101L0,-0.001L182.774,-0.001L182.774,-11.098L-12.971,-11.098L-12.971,320.884L182.774,320.884L183.245,309.786L0,309.786Z" style="fill:rgb(60,60,59);fill-rule:nonzero;"/>
        </g>
        <g transform="matrix(1,0,0,1,2369.47,490.146)">
            <path d="M0,-333.252L-12.291,-333.252L-135.7,-137.337L-259.109,-333.252L-271.893,-333.252L-271.893,0L-260.584,0L-260.584,-314.546L-140.125,-123.062L-131.767,-123.062L-11.309,-314.546L-10.816,-314.546L-11.309,-178.193L-11.309,0L0,0L0,-333.252Z" style="fill:rgb(60,60,59);fill-rule:nonzero;"/>
        </g>
        <g transform="matrix(1,0,0,1,-185.444,-118.293)">
            <rect x="2686.18" y="275.187" width="11.8" height="333.252" style="fill:rgb(60,60,59);"/>
        </g>
        <g transform="matrix(1,0,0,1,293.588,93.3344)">
            <path d="M0,0.254L-86.59,86.59L-86.59,-86.336L0,0.254Z" style="fill:rgb(123,184,42);fill-rule:nonzero;"/>
        </g>
        <g transform="matrix(1,0,0,1,5.3311,150.043)">
            <path d="M0,44.625C62.556,92.307 125.112,139.989 187.667,187.67C187.667,77.432 187.668,-32.807 187.668,-143.045C125.112,-80.488 62.556,-17.932 0,44.625" style="fill:rgb(123,184,42);fill-rule:nonzero;"/>
        </g>
        <g transform="matrix(1,0,0,1,0,488.889)">
            <path d="M0,-280.678L0,0L192.999,0L192.999,-133.573C128.666,-182.608 64.333,-231.643 0,-280.678" style="fill:rgb(123,184,42);fill-rule:nonzero;"/>
        </g>
        <g transform="matrix(1,0,0,1,303.489,488.889)">
            <path d="M0,-385.4C-32.164,-353.329 -64.327,-321.257 -96.49,-289.185L-96.49,0L96.511,0L96.511,-289.185C64.341,-321.257 32.17,-353.329 0,-385.4" style="fill:rgb(160,205,84);fill-rule:nonzero;"/>
        </g>
    </g>
</svg>
